build/img/phone.svg

<svg width="80" height="80" viewBox="0 0 80 80" fill="none" xmlns="http://www.w3.org/2000/svg">
<g clip-path="url(#clip0)">
<path d="M48.2355 66.6665C45.6621 66.6665 43.5687 68.7599 43.5687 71.3332C43.5687 73.9066 45.6621 76 48.2355 76C50.8088 76 52.9022 73.9066 52.9022 71.3332C52.9022 68.7599 50.8075 66.6665 48.2355 66.6665ZM48.2355 73.3333C47.1328 73.3333 46.2354 72.4359 46.2354 71.3332C46.2354 70.2306 47.1328 69.3332 48.2355 69.3332C49.3382 69.3332 50.2355 70.2306 50.2355 71.3332C50.2355 72.4359 49.3382 73.3333 48.2355 73.3333Z" fill="white"/>
<path d="M54.2356 49.3329C57.177 49.3329 59.569 46.9408 59.569 43.9994C59.569 41.0581 57.177 38.666 54.2356 38.666C51.2942 38.666 48.9022 41.0581 48.9022 43.9994C48.9022 46.9408 51.2929 49.3329 54.2356 49.3329ZM54.2356 41.3327C55.7063 41.3327 56.9023 42.5287 56.9023 43.9994C56.9023 45.4701 55.7063 46.6661 54.2356 46.6661C52.7649 46.6661 51.5689 45.4701 51.5689 43.9994C51.5689 42.5287 52.7649 41.3327 54.2356 41.3327Z" fill="white"/>
<path d="M22.235 15.9989C22.5764 15.9989 22.9177 15.8682 23.1777 15.6082L25.8444 12.9415C26.3658 12.4202 26.3658 11.5775 25.8444 11.0562C25.3231 10.5348 24.4804 10.5348 23.9591 11.0562L21.2923 13.7229C20.771 14.2442 20.771 15.0869 21.2923 15.6082C21.5523 15.8682 21.8937 15.9989 22.235 15.9989Z" fill="white"/>
<path d="M70.2359 39.6633C70.2359 38.49 69.7785 37.3873 68.9492 36.558L68.2065 35.8153C69.4718 34.6953 70.2345 33.0752 70.2345 31.3325C70.2345 28.0245 67.5425 25.3324 64.2344 25.3324C63.9917 25.3324 63.7517 25.3564 63.5144 25.3858C63.5437 25.1471 63.5677 24.9098 63.5677 24.6658C63.5677 21.3577 60.8757 18.6657 57.5676 18.6657C57.325 18.6657 57.085 18.6897 56.8476 18.719C56.877 18.4803 56.901 18.243 56.901 17.999C56.901 14.6909 54.2089 11.9989 50.9009 11.9989C50.6582 11.9989 50.4182 12.0229 50.1808 12.0522C50.2102 11.8136 50.2342 11.5762 50.2342 11.3322C50.2342 8.02416 47.5421 5.33211 44.2341 5.33211C42.4901 5.33211 40.8714 6.09612 39.7513 7.36015L38.6927 6.30146L33.6752 1.28404C31.9619 -0.429317 29.1752 -0.429317 27.4645 1.28404L11.0482 17.7003C9.33749 19.4137 9.33749 22.1991 11.0482 23.9124L16.0656 28.9298L22.6124 35.4766C20.8044 36.5113 19.5683 38.438 19.5683 40.666C19.5683 42.7501 20.639 44.5874 22.2577 45.6635C22.339 45.7715 22.4337 45.8781 22.5604 45.9861L36.902 60.273V62.6677H34.2352V80.0014H58.2356H68.9025V62.6677H66.2358V58.6277C68.7865 56.4663 70.2359 53.3582 70.2359 49.9995C70.2359 47.6795 69.5118 45.4261 68.1878 43.5301L68.9492 42.7687C69.7785 41.9394 70.2359 40.8367 70.2359 39.6633ZM67.5691 31.3325C67.5691 32.3566 67.0971 33.3046 66.3198 33.9286L61.6384 29.2472C62.2624 28.4698 63.2117 27.9978 64.2344 27.9978C66.0731 27.9992 67.5691 29.4938 67.5691 31.3325ZM60.9024 24.6658C60.9024 25.6898 60.4304 26.6378 59.653 27.2618L54.9716 22.5804C55.5956 21.8031 56.545 21.331 57.5676 21.331C59.4063 21.3324 60.9024 22.8271 60.9024 24.6658ZM54.2356 17.999C54.2356 19.023 53.7636 19.971 52.9862 20.595L48.3048 15.9136C48.9288 15.1363 49.8782 14.6643 50.9009 14.6643C52.7396 14.6656 54.2356 16.1603 54.2356 17.999ZM44.2354 7.99882C46.0741 7.99882 47.5688 9.49351 47.5688 11.3322C47.5688 12.3562 47.0968 13.3042 46.3194 13.9283L41.638 9.24684C42.2621 8.47083 43.2114 7.99882 44.2354 7.99882ZM12.9336 22.0284C12.2615 21.355 12.2615 20.2604 12.9336 19.587L29.3498 3.17074C29.5165 3.00407 29.7112 2.87874 29.9178 2.79474C30.0112 2.75607 30.1165 2.7574 30.2152 2.73607C30.4525 2.6854 30.6872 2.6854 30.9245 2.73607C31.0232 2.7574 31.1285 2.75607 31.2219 2.79474C31.4285 2.87874 31.6219 3.00407 31.7899 3.17074L34.9219 6.30279L16.0656 25.1591L12.9336 22.0284ZM36.8073 8.18816L38.378 9.75885L45.0448 16.4256L45.8088 17.1896L51.7115 23.0924L52.4756 23.8564L58.3783 29.7592L59.1423 30.5232L65.8091 37.19L67.0625 38.4433C67.7358 39.1167 67.7358 40.21 67.0625 40.8834L66.4798 41.4674L50.6475 57.301C49.9768 57.973 48.8795 57.9757 48.2061 57.301L37.5726 46.6661H38.9007C42.2087 46.6661 44.9008 43.9741 44.9008 40.666C44.9008 37.358 42.2087 34.6659 38.9007 34.6659H25.5711L17.9496 27.0445L36.8073 8.18816ZM24.8484 37.4153L25.4018 37.3526C25.4564 37.3446 25.5111 37.3326 25.5671 37.3326H38.9007C40.7394 37.3326 42.234 38.8273 42.234 40.666C42.234 42.5047 40.7394 43.9994 38.9007 43.9994H34.9059H31.1352H25.5671C23.7284 43.9994 22.2337 42.5047 22.2337 40.666C22.235 39.0753 23.3564 37.746 24.8484 37.4153ZM36.902 77.3333V65.3331H48.1368C52.2342 65.3331 55.5689 68.6678 55.5689 72.7652V77.3333H36.902ZM66.2358 77.3333H58.2356V72.7652C58.2356 69.8239 56.9636 67.1811 54.9503 65.3331H66.2358V77.3333ZM66.2691 45.4501C67.1145 46.8115 67.5691 48.3862 67.5691 49.9995C67.5691 52.7396 66.3051 55.2609 64.0998 56.921L63.5691 57.321V62.6664H48.1355H39.5673V59.0423L39.0967 58.6437C39.0367 58.5917 38.9727 58.5437 38.8567 58.457L27.0205 46.6648H33.8006L46.3194 59.185C47.1768 60.041 48.3008 60.469 49.4248 60.469C50.5502 60.469 51.6755 60.041 52.5316 59.185L66.2691 45.4501Z" fill="white"/>
</g>
<defs>
<clipPath id="clip0">
<rect width="80" height="80" fill="white"/>
</clipPath>
</defs>
</svg>

<svg width="80" height="80" fill="none" xmlns="http://www.w3.org/2000/svg"><g clip-path="url(#clip0)" fill="#fff"><path d="M48.236 66.666a4.672 4.672 0 00-4.667 4.667A4.672 4.672 0 0048.235 76a4.672 4.672 0 004.667-4.667 4.673 4.673 0 00-4.666-4.666zm0 6.667c-1.103 0-2-.897-2-2 0-1.102.897-2 2-2 1.102 0 2 .898 2 2 0 1.103-.898 2-2 2zm6-24a5.339 5.339 0 005.333-5.334 5.339 5.339 0 00-5.333-5.333 5.339 5.339 0 00-5.334 5.333 5.338 5.338 0 005.334 5.334zm0-8a2.67 2.67 0 012.666 2.666 2.67 2.67 0 01-2.666 2.667A2.67 2.67 0 0151.569 44a2.67 2.67 0 012.667-2.666zM22.235 15.999c.341 0 .683-.13.943-.39l2.666-2.668a1.332 1.332 0 000-1.885 1.332 1.332 0 00-1.885 0l-2.667 2.667a1.332 1.332 0 00.943 2.276z"/><path d="M70.236 39.663a4.363 4.363 0 00-1.287-3.105l-.742-.743a5.99 5.99 0 002.028-4.482c0-3.308-2.692-6-6-6-.243 0-.483.023-.72.053.029-.239.053-.476.053-.72 0-3.308-2.692-6-6-6-.243 0-.483.024-.72.053.029-.239.053-.476.053-.72 0-3.308-2.692-6-6-6-.243 0-.483.024-.72.053.03-.238.053-.476.053-.72 0-3.308-2.692-6-6-6a5.992 5.992 0 00-4.483 2.028l-1.058-1.059-5.018-5.017a4.395 4.395 0 00-6.21 0L11.047 17.7a4.401 4.401 0 000 6.212l5.018 5.018 6.546 6.547c-1.808 1.034-3.044 2.961-3.044 5.189a5.997 5.997 0 002.69 4.998c.081.108.176.214.302.322l14.342 14.287v2.395h-2.667V80h34.668V62.668h-2.667v-4.04c2.55-2.162 4-5.27 4-8.629a11.3 11.3 0 00-2.048-6.469l.761-.761a4.363 4.363 0 001.287-3.106zm-2.667-8.33a3.33 3.33 0 01-1.25 2.596l-4.68-4.682a3.331 3.331 0 012.595-1.25 3.34 3.34 0 013.335 3.335zm-6.667-6.667a3.33 3.33 0 01-1.249 2.596l-4.681-4.682a3.332 3.332 0 012.596-1.249 3.34 3.34 0 013.334 3.335zm-6.666-6.667a3.33 3.33 0 01-1.25 2.596l-4.681-4.681a3.332 3.332 0 012.596-1.25A3.34 3.34 0 0154.236 18zm-10-10a3.336 3.336 0 013.333 3.333 3.33 3.33 0 01-1.25 2.596l-4.681-4.681a3.335 3.335 0 012.597-1.248zm-31.302 14.03a1.73 1.73 0 010-2.442L29.35 3.171c.166-.167.361-.292.568-.376.093-.039.198-.038.297-.059a1.7 1.7 0 01.71 0c.098.021.203.02.297.059.206.084.4.21.568.376l3.132 3.132-18.856 18.856-3.132-3.13zm23.873-13.84l1.571 1.57 6.667 6.667.764.764 5.903 5.902.764.764 5.902 5.903.764.764 6.667 6.667 1.254 1.253a1.726 1.726 0 010 2.44l-.583.584-15.833 15.834a1.728 1.728 0 01-2.44 0L37.572 46.666H38.9c3.308 0 6-2.692 6-6s-2.692-6-6-6H25.57l-7.621-7.621L36.807 8.188zM24.848 37.414l.554-.062c.054-.008.11-.02.165-.02h13.334a3.336 3.336 0 013.333 3.333 3.336 3.336 0 01-3.333 3.333H25.567a3.336 3.336 0 01-3.333-3.333 3.339 3.339 0 012.614-3.25zm12.054 39.918v-12h11.235c4.097 0 7.432 3.335 7.432 7.432v4.568H36.902zm29.334 0h-8v-4.568c0-2.941-1.272-5.584-3.286-7.432h11.286v12zm.033-31.883a8.625 8.625 0 011.3 4.55c0 2.74-1.264 5.26-3.47 6.921l-.53.4v5.345H39.567v-3.624l-.47-.398c-.06-.052-.124-.1-.24-.187L27.02 46.665h6.78l12.52 12.52a4.382 4.382 0 003.105 1.284 4.38 4.38 0 003.107-1.284L66.269 45.45z"/></g><defs><clipPath id="clip0"><path fill="#fff" d="M0 0h80v80H0z"/></clipPath></defs></svg>
